usr/share/icons/biglinux-icons-material-dark/symbolic/actions/format-text-direction-ltr.svg

<svg xmlns="http://www.w3.org/2000/svg" viewBox="0 0 16 16">
<defs id="defs3051">
<style id="current-color-scheme" type="text/css">
.ColorScheme-Contrast{color:#dedede}
</style>
</defs>
<path d="M2 2v4h4V2zm5 0v1h7V2zm0 2v1h2V4zM2 7v1h10V7zm0 2v1h5V9zm0 3v1h8v-1zm10 1v1h2v-1z" class="ColorScheme-Contrast" style="fill:currentColor;fill-opacity:1;stroke:none"/>
</svg>

<svg xmlns="http://www.w3.org/2000/svg" viewBox="0 0 16 16">
  <defs id="defs3051">
    <style type="text/css" id="current-color-scheme">
      .ColorScheme-Text {
        color:#dedede;
      }
      </style>
  </defs>
 <path style="fill:currentColor;fill-opacity:1;stroke:none" 
       d="M 2 2 L 2 6 L 6 6 L 6 2 L 2 2 z M 7 2 L 7 3 L 14 3 L 14 2 L 7 2 z M 7 4 L 7 5 L 9 5 L 9 4 L 7 4 z M 2 7 L 2 8 L 12 8 L 12 7 L 2 7 z M 2 9 L 2 10 L 7 10 L 7 9 L 2 9 z M 2 12 L 2 13 L 10 13 L 10 12 L 2 12 z M 12 13 L 12 14 L 14 14 L 14 13 L 12 13 z "
     class="ColorScheme-Text"
     />
</svg>
